svgs/duotone/austral-sign.svg

<svg xmlns="http://www.w3.org/2000/svg" viewBox="0 0 448 512"><!--! Font Awesome Pro 6.6.0 by @fontawesome - https://fontawesome.com License - https://fontawesome.com/license (Commercial License) Copyright 2024 Fonticons, Inc. --><path class="fa-secondary" style="fill:var(--fa-secondary-color,inherit);opacity:var(--fa-secondary-opacity,.4);" d="M0 256c0-17.7 14.3-32 32-32l90.7 0L96 288l-64 0c-17.7 0-32-14.3-32-32zm0 96c0-17.7 14.3-32 32-32l50.7 0L56 384l-24 0c-17.7 0-32-14.3-32-32zm125.3 32L152 320l144 0 26.7 64-197.3 0zm40-96L192 224l64 0c8.9 21.3 17.8 42.7 26.7 64l-117.3 0zm160-64l90.7 0c17.7 0 32 14.3 32 32s-14.3 32-32 32l-64 0-26.7-64zm40 96l50.7 0c17.7 0 32 14.3 32 32s-14.3 32-32 32l-24 0-26.7-64z"/><path class="fa-primary" style="fill:var(--fa-primary-color,inherit);opacity:var(--fa-primary-opacity,1);" d="M224 32c12.9 0 24.6 7.8 29.5 19.7l160 384c6.8 16.3-.9 35-17.2 41.8s-35-.9-41.8-17.2L224 147.2 93.5 460.3c-6.8 16.3-25.5 24-41.8 17.2s-24-25.5-17.2-41.8l160-384C199.4 39.8 211.1 32 224 32z"/></svg>

<svg xmlns="http://www.w3.org/2000/svg" viewBox="0 0 448 512"><!--! Font Awesome Pro 6.4.2 by @fontawesome - https://fontawesome.com License - https://fontawesome.com/license (Commercial License) Copyright 2023 Fonticons, Inc. --><path class="fa-primary" style="fill:var(--fa-primary-color,inherit);opacity:var(--fa-primary-opacity,1);" d="M224 32c12.9 0 24.6 7.8 29.5 19.7l160 384c6.8 16.3-.9 35-17.2 41.8s-35-.9-41.8-17.2L224 147.2 93.5 460.3c-6.8 16.3-25.5 24-41.8 17.2s-24-25.5-17.2-41.8l160-384C199.4 39.8 211.1 32 224 32z"/><path class="fa-secondary" style="fill:var(--fa-secondary-color,inherit);opacity:var(--fa-secondary-opacity,.4);" d="M122.7 224L96 288H32c-17.7 0-32-14.3-32-32s14.3-32 32-32h90.7zm-40 96L56 384H32c-17.7 0-32-14.3-32-32s14.3-32 32-32H82.7zm42.7 64L152 320H296l26.7 64H125.3zM392 384l-26.7-64H416c17.7 0 32 14.3 32 32s-14.3 32-32 32H392zm-40-96l-26.7-64H416c17.7 0 32 14.3 32 32s-14.3 32-32 32H352zM192 224h64l26.7 64H165.3L192 224z"/></svg>
